svgs/duotone/refrigerator.svg

<svg xmlns="http://www.w3.org/2000/svg" viewBox="0 0 384 512"><!--! Font Awesome Pro 6.4.2 by @fontawesome - https://fontawesome.com License - https://fontawesome.com/license (Commercial License) Copyright 2023 Fonticons, Inc. --><path class="fa-primary" style="fill:var(--fa-primary-color,inherit);opacity:var(--fa-primary-opacity,1);" d="M96 0C43 0 0 43 0 96v64H288V112c0-8.8 7.2-16 16-16s16 7.2 16 16v48h64V96c0-53-43-96-96-96H96zM384 192H320V368c0 8.8-7.2 16-16 16s-16-7.2-16-16V192H0V448c0 35.3 28.7 64 64 64H320c35.3 0 64-28.7 64-64V192z"/><path class="fa-secondary" style="fill:var(--fa-secondary-color,inherit);opacity:var(--fa-secondary-opacity,.4);" d="M288 160H0v32H288V160zm96 0H320v32h64V160z"/></svg>

<svg xmlns="http://www.w3.org/2000/svg" viewBox="0 0 384 512"><!--! Font Awesome Pro 6.6.0 by @fontawesome - https://fontawesome.com License - https://fontawesome.com/license (Commercial License) Copyright 2024 Fonticons, Inc. --><path class="fa-secondary" style="fill:var(--fa-secondary-color,inherit);opacity:var(--fa-secondary-opacity,.4);" d="M0 160l0 32 288 0 0-32L0 160zm320 0l0 32 64 0 0-32-64 0z"/><path class="fa-primary" style="fill:var(--fa-primary-color,inherit);opacity:var(--fa-primary-opacity,1);" d="M96 0C43 0 0 43 0 96l0 64 288 0 0-48c0-8.8 7.2-16 16-16s16 7.2 16 16l0 48 64 0 0-64c0-53-43-96-96-96L96 0zM384 192l-64 0 0 176c0 8.8-7.2 16-16 16s-16-7.2-16-16l0-176L0 192 0 448c0 35.3 28.7 64 64 64l256 0c35.3 0 64-28.7 64-64l0-256z"/></svg>
